X: 46
T: M'a vostre cueur
N: Derived from Bus3042-Ma_vostre_cueur.krn
C: Antoine Busnoys
%%abc-version 2.0
%%abcx-abcm2ps-target-version 5.9.1 (29 Sep 2008)
%%abc-creator hum2abc beta
%%abcx-conversion-date 2019/02/16 20:26:07
%%abc-edited-by Jesse Rodin
%%abc-edited-by Chris Gage 03-28-2015
%%abcx-initial-encoding-date 2015/04/13/
%%humdrum-veritas 3003569765
%%humdrum-veritas-data 3887186088
%%linebreak <none>
%%barnumbers 0
L: 1/4
M: 2/1
Q: 1/2=120
V: 1 clef=treble
V: 2 clef=treble-8
V: 3 clef=bass
K: F
[V:1] z8 | 
[V:2] z8 | 
[V:3] D,4F,4 | 
[V:1] z4D4 | 
[V:2] z8 | 
[V:3] E,4D,4- | 
[V:1] F4E4 | 
[V:2] z8 | 
[V:3] D,2C,B,,C,4 | 
[V:1] D6CB, | 
[V:2] D4F4 | 
[V:3] D,2B,,3C,D,2 | 
[V:1] C4D2F2- | 
[V:2] E4D4- | 
[V:3] A,,4B,,4- | 
[V:1] F2EDE4 | 
[V:2] D2CB,C4 | 
[V:3] B,,4A,,4 | 
[V:1] D4A4 | 
[V:2] D2F4ED | 
[V:3] B,,2D,3E,F,2 | 
[V:1] G4F4- | 
[V:2] E4D4 | 
[V:3] C,4z4 | 
[V:1] F2EDC2D2- | 
[V:2] A6F2 | 
[V:3] D,4A,,2B,,2- | 
[V:1] D2CB,A,3B, | 
[V:2] G4F3D | 
[V:3] B,,A,,G,,2D,4 | 
[V:1] C3DE2F2- | 
[V:2] E2F2G2A2 | 
[V:3] A,,4G,,2F,,2 | 
[V:1] FGFE/D/^C3=B, | 
[V:2] D4E4 | 
[V:3] B,,4A,,4 | 
[V:1] D8 | 
[V:2] D4z4 | 
[V:3] A,4D,2G,2- | 
[V:1] z4A4 | 
[V:2] d3ef3e | 
[V:3] G,2F,E,D,4 | 
[V:1] A4B4 | 
[V:2] c2d4cB | 
[V:3] F,4G,4 | 
[V:1] c4B2A2- | 
[V:2] A4z4 | 
[V:3] F,4G,2F,2- | 
[V:1] A2GFE4 | 
[V:2] c4c4 | 
[V:3] F,2G,2A,4 | 
[V:1] F4G4 | 
[V:2] d4=B4 | 
[V:3] z2D,2E,4 | 
[V:1] E4F3G | 
[V:2] c4d4 | 
[V:3] A,4D,4 | 
[V:1] A2B2c2B2- | 
[V:2] c2d2e2d2- | 
[V:3] z4C,2G,2- | 
[V:1] BAA4G2 | 
[V:2] d2c2=B4 | 
[V:3] G,2A,2E,4 | 
[V:1] A3GF3E/D/ | 
[V:2] A8- | 
[V:3] F,2D,4C,B,, | 
[V:1] ^C8- | 
[V:2] A8- | 
[V:3] A,,8- | 
[V:1] C4D4 | 
[V:2] A4z4 | 
[V:3] A,,4D,2G,2- | 
[V:1] D4^C4 | 
[V:2] z8 | 
[V:3] G,F,E,D,E,4 | 
[V:1] D2A4GF | 
[V:2] D4D4 | 
[V:3] z2F,4D,2 | 
[V:1] E4D2F2- | 
[V:2] C4D2A2- | 
[V:3] A,,4z4 | 
[V:1] F2EDC4 | 
[V:2] A2GFE2F2- | 
[V:3] A,,8 | 
[V:1] D4E4- | 
[V:2] F2EDC2c2- | 
[V:3] B,,4A,,3B,, | 
[V:1] E2DCB,4 | 
[V:2] c2BAG4 | 
[V:3] C,2D,2E,4 | 
[V:1] A,4C4 | 
[V:2] A8 | 
[V:3] F,8 | 
[V:1] D4E4 | 
[V:2] =B4c4 | 
[V:3] D,4C,4 | 
[V:1] F4G4- | 
[V:2] A4G4 | 
[V:3] D,4z4 | 
[V:1] G2E2E4- | 
[V:2] E4G4 | 
[V:3] C,8 | 
[V:1] E4D4 | 
[V:2] F8 | 
[V:3] D,8 | 
[V:1] E8 | 
[V:2] E4A4- | 
[V:3] A,,6B,,2 | 
[V:1] z8 | 
[V:2] A4G4 | 
[V:3] C,3D,B,,4 | 
[V:1] A8 | 
[V:2] A4c4 | 
[V:3] A,,4z2A,,2 | 
[V:1] G4A4 | 
[V:2] =B4A2A2- | 
[V:3] E,4A,,4- | 
[V:1] c4B4 | 
[V:2] A2GFG3E | 
[V:3] A,,4E,4 | 
[V:1] A2A4GF | 
[V:2] F4D4 | 
[V:3] z2D,2F,2E,D, | 
[V:1] G3EF4 | 
[V:2] E4D2F2- | 
[V:3] C,4z2D,2 | 
[V:1] D4E4 | 
[V:2] FGFE/D/^C4 | 
[V:3] B,,4A,,4 | 
[V:1] D2F3GFE/D/ | 
[V:2] z4D4 | 
[V:3] B,,8 | 
[V:1] C3DF2E2- | 
[V:2] E4D2G2- | 
[V:3] A,,4B,,2C,2- | 
[V:1] EDCB,A,3B, | 
[V:2] GFE2F3G | 
[V:3] C,4D,4 | 
[V:1] C2D4^C2 | 
[V:2] A2D2E4 | 
[V:3] A,,2B,,2A,,4 | 
[V:1] D8 ]|:  
[V:2] D8 ||  
[V:3] A,8 ]|:  
[V:1]  [K:F] [K:clef=treble][M:2/1]z8 | 
[V:2]  [K:F] [K:clef=treble-8][M:2/1]z8 | 
[V:3]  [K:F] [K:clef=bass][M:2/1]A,,4B,,2D,2- | 
[V:1] z8 | 
[V:2] z4A4 | 
[V:3] D,2^C,2D,4- | 
[V:1] z8 | 
[V:2] B2d4^c2 | 
[V:3] D,4E,4 | 
[V:1] A4B2d2- | 
[V:2] d4d4 | 
[V:3] D,6C,B,, | 
[V:1] d2^c2d4 | 
[V:2] e4d4 | 
[V:3] A,,4B,,4- | 
[V:1] d6cB | 
[V:2] f6ed | 
[V:3] B,,2C,2D,3E, | 
[V:1] A4A4 | 
[V:2] c6d2- | 
[V:3] F,8 | 
[V:1] B4c3B | 
[V:2] d2cBA4 | 
[V:3] G,4F,4 | 
[V:1] G2A3BAG/F/ | 
[V:2] B2c2d4 | 
[V:3] G,2F,2D,4 | 
[V:1] E2A2=B2c2- | 
[V:2] c4d2e2- | 
[V:3] A,,4z2A,2- | 
[V:1] cAA4G2 | 
[V:2] e2c2=B4 | 
[V:3] A,2A,2E,4 | 
[V:1] A3GE2F2- | 
[V:2] A8- | 
[V:3] F,3E,C,2D,2- | 
[V:1] F2EDC4 | 
[V:2] A8 | 
[V:3] D,2C,B,,A,,4 | 
[V:1] z8 | 
[V:2] z4D4 | 
[V:3] D,2F,3E,D,2- | 
[V:1] z8 | 
[V:2] F6ED | 
[V:3] D,C,B,,2A,,2D,2- | 
[V:1] z4D4 | 
[V:2] E4D4 | 
[V:3] D,2^C,2D,2F,2- | 
[V:1] F6ED | 
[V:2] A6GF | 
[V:3] F,2D,3E,F,2 | 
[V:1] E4D4 | 
[V:2] G2G4FE | 
[V:3] C,4z4 | 
[V:1] A6GF | 
[V:2] F2D3CD2 | 
[V:3] D,2F,3E,F,2 | 
[V:1] G2G4FE | 
[V:2] EDCB,C4 | 
[V:3] C,2E,4D,C, | 
[V:1] F2D3CD2 | 
[V:2] D2F3GFE/D/ | 
[V:3] B,,8 | 
[V:1] ED^C=B,C4 | 
[V:2] C2E3DE2 | 
[V:3] A,,8 | 
[V:1] D2F3GFE/D/ | 
[V:2] F2A3BAG/F/ | 
[V:3] z4A,,4- | 
[V:1] C3DE2F2- | 
[V:2] E3FG2A2- | 
[V:3] A,,4G,,2F,,2- | 
[V:1] FGA3BAG/F/ |[1 
[V:2] ABc2d4 | 
[V:3] F,,2F,3D,F,G, | 
[V:1] E8 :|][2 
[V:2] ^c8 :|]  
[V:3] A,8 :|]  
[V:1] E3FG2A2- | 
[V:2] c3AB2c2 | 
[V:3] A,4G,2F,2- | 
[V:1] A2G3FED | 
[V:2] d2e3dcB | 
[V:3] F,2E,2C,2D,2 | 
[V:1] E2D2E4 | 
[V:2] c2d4^c2 | 
[V:3] A,,2B,,2A,,4 | 
[V:1] D8 |]  
[V:2] d8 |]  
[V:3] D,8 |]  



